X: 193
T: The Holly Bush
C: Finbarr Dwyer
R:reel
M:C|
L:1/8
K:Dmix
"D"A2FA DAAG|FAde fded|"C"cG~G2 EG~G2|cedc AGFG|
"D"A2FA DAAG|FAde fded|"C"cG~G2cedc|"Am7"AcGE "D"D2FG:|
|:"D"Add^c defg|adde dcAB|"C"c2cB cdeg|aged cAGc|
"D"Add^c defg|adde dcAB|"C"c2cB cded|"Am7"cAGE "D"D2FG:|


